!!!!SEGMENT: Fsc2013-Nunc_dimittis.krn
!!!id: Fsc2013
!!!AGN: Motet
!!!SCT: Seay (1979)
!!!voices: 4
!!!COM: Costanzo Festa
!!!OTL: Nunc dimittis
**kern	**kern	**kern	**kern
*part4	*part3	*part2	*part1
*staff4	*staff3	*staff2	*staff1
*I"Bassus	*I"Tenor	*I"Altus	*I"Superius
*I'B	*I'T	*I'A	*I'S
*clefF4	*clefGv2	*clefG2	*clefG2
*k[b-]	*k[b-]	*k[b-]	*k[b-]
*F:	*F:	*F:	*F:
*M2/1	*M2/1	*M2/1	*M2/1
*met(C2)	*met(C2)	*met(C2)	*met(C2)
!!section: Prima pars: Nunc dimittis
!!!OMD: Prima pars: Nunc dimittis
=1	=1	=1	=1
0F	0A	0c	0f
=2	=2	=2	=2
1BB-y	1B-y	1d	1f
[1F	[1c	[1f	[1a
=3	=3	=3	=3
1F]	1c]	1f]	1a]
1F	1c	1f	1a
=4	=4	=4	=4
1.D	1.f	1.a	1.dd
2D	2f	2a	2dd
=5	=5	=5	=5
1E-X	1e-X	1g	1b-y
1F	1c	1f	1a
=6	=6	=6	=6
1.C	1.c	1.e	1.g
2D	2A	2d	2f
=7	=7	=7	=7
0D	0A	0d	0f
=8	=8	=8	=8
1r	1r	1r	1r
1BB-y	1d	1f	1b-y
=9	=9	=9	=9
2BB-y	2d	2f	2b-y
2BB-y	2d	2f	2b-y
[1B-y	[1d	[1f	[1b-y
=10	=10	=10	=10
2B-]	2d]	2f]	2b-]
2B-y	2d	2f	2b-y
[1F	[1c	[1f	[1a
=11	=11	=11	=11
1F]	1c]	1f]	1a]
[1C	2.c	[1e	1g
.	4B-y	.	.
=12	=12	=12	=12
1C]	2A	1e]	1cc
.	2G	.	.
[1D	[1F	2d	2b-y
.	.	[2c	[2a
=13	=13	=13	=13
1D]	1F]	4c]	2a]
.	.	8BniL	.
.	.	8AJ	.
.	.	2Bni	4g
.	.	.	4f
2.C	2G	1c	2.e
.	[2c	.	.
4D	.	.	4f
=14	=14	=14	=14
2E	4c]	2r	2g
.	4B-y	.	.
2F	4A	2.c	2.a
.	4G	.	.
1D	1F	.	.
.	.	4c	4g
.	.	2B-y	[2f
=15	=15	=15	=15
1C	1G	1.c	4f]
.	.	.	4e
.	.	.	4e
.	.	.	4d
[1F	1F	.	[1f
.	.	2B-y	.
=16	=16	=16	=16
1F]	1r	2A	1f]
.	.	2G	.
1r	1f	1F	1r
=17	=17	=17	=17
1c	2e	0r	0r
.	2c	.	.
2B-y	1d	.	.
2G	.	.	.
=18	=18	=18	=18
1A	1c	0r	0r
1G	1B-y	.	.
=19	=19	=19	=19
1F	2A	0r	0r
.	2F	.	.
2E	1G	.	.
2C	.	.	.
=20	=20	=20	=20
1D	1F	1r	1ff
2C	1r	1cc	2ee
2c	.	.	2cc
=21	=21	=21	=21
2G	0r	2b-y	1dd
2B-y	.	2g	.
2A	.	1a	1cc
2F	.	.	.
=22	=22	=22	=22
2.G	0r	1g	1b-y
4F	.	.	.
2D	.	1f	2a
[2d	.	.	2f
=23	=23	=23	=23
4d]	1r	2e	1g
4c	.	.	.
2.c	.	2c	.
.	2r	1d	2.f
8BniL	.	.	.
8AJ	.	.	.
2Bni	2f	.	.
.	.	.	4g
=24	=24	=24	=24
1c	2e	1c	4a
.	.	.	4b-y
.	2c	.	1cc
1G	1d	1r	.
.	.	.	2b-y
=25	=25	=25	=25
2r	1c	1r	2a
2C	.	.	2.g
2D	1B-y	2r	.
.	.	.	4f
2E	.	2G	4e
.	.	.	4d
=26	=26	=26	=26
1F	2A	2A	2c
.	2F	2B-y	2.f
1C	1G	[1c	.
.	.	.	4e
.	.	.	4e
.	.	.	4d
=27	=27	=27	=27
2r	1F	1c]	2f
1F	.	.	1a
.	1r	[1c	.
2E	.	.	2g
=28	=28	=28	=28
2F	1r	1c]	2a
2E	.	.	2g
1F	2r	2r	2.a
.	[2f	[2a	.
.	.	.	8gL
.	.	.	8fJ
=29	=29	=29	=29
1C	2f]	2a]	[0cc
.	2e	2g	.
1r	2f	2a	.
.	2e	2g	.
=30	=30	=30	=30
1r	1f	1a	0cc]
2r	2.c	[1g	.
[2C	.	.	.
.	4d	.	.
=31	=31	=31	=31
2C]	2e	1g]	1r
2G	2.d	.	.
2E	.	1r	2r
.	4c	.	.
2F	[2c	.	2cc
=32	=32	=32	=32
1D	4c]	1r	1ff
.	4Bni	.	.
.	4Bni	.	.
.	8AL	.	.
.	8BniJ	.	.
1C	1c	2r	1ee
.	.	2G	.
=33	=33	=33	=33
2r	0r	4c	1cc
.	.	4B-y	.
1C	.	4c	.
.	.	4d	.
.	.	2e	1r
2G	.	[2d	.
=34	=34	=34	=34
2E	2r	4d]	0r
.	.	4c	.
2F	2c	2.c	.
1D	1f	.	.
.	.	4Bni	.
.	.	4Bni	.
.	.	4A	.
=35	=35	=35	=35
1C	1e	1c	2r
.	.	.	2g
2r	1c	1r	4cc
.	.	.	4b-y
[2C	.	.	4cc
.	.	.	4dd
=36	=36	=36	=36
2C]	2r	1r	2ee
2G	1G	.	2.dd
2E	.	2r	.
.	.	.	4cc
2F	2A	2c	[2cc
=37	=37	=37	=37
1D	1F	1f	4cc]
.	.	.	8bniL
.	.	.	8aJ
.	.	.	2bni
2C	1G	1e	[1cc
2C	.	.	.
=38	=38	=38	=38
1F	1A	1c	1cc]
1E	1G	1r	2r
.	.	.	[2g
=39	=39	=39	=39
1C	0r	1c	2g]
.	.	.	2cc
1r	.	2f	2a
.	.	2d	2b-y
=40	=40	=40	=40
0r	0r	2e	2cc
.	.	1f	2cc
.	.	.	2cc
.	.	2f	[2cc
=41	=41	=41	=41
0r	0r	2f	2cc]
.	.	2e	2g
.	.	2f	2a
.	.	2g	2b-y
=42	=42	=42	=42
0r	0r	2a	2cc
.	.	2.g	2.b-y
.	.	4f	4a
.	.	[2f	4g
.	.	.	4f
=43	=43	=43	=43
1r	2r	4f]	1g
.	.	8eL	.
.	.	8dJ	.
.	1c	2e	.
1F	.	1f	1f
.	2c	.	.
=44	=44	=44	=44
2F	2A	0r	0r
2D	2B-y	.	.
2E	2c	.	.
[2F	[2c	.	.
=45	=45	=45	=45
2F]	2c]	0r	0r
2F	1c	.	.
2F	.	.	.
2E	2G	.	.
=46	=46	=46	=46
4F	4A	0r	0r
4E	4G	.	.
4F	4A	.	.
4G	4B-y	.	.
2A	2c	.	.
[2G	[2B-y	.	.
=47	=47	=47	=47
4G]	4B-]	0r	0r
4F	4A	.	.
2.F	4G	.	.
.	4F	.	.
.	1G	.	.
4E	.	.	.
4D	.	.	.
4E	.	.	.
=48	=48	=48	=48
2F	2F	2r	2r
1c	1F	1a	1ff
2c	2C	2g	2ee
=49	=49	=49	=49
2A	2F	2a	2dd
2B-y	2G	2g	2dd
2c	2C	2g	2ee
[2c	2A	2e	2cc
=50	=50	=50	=50
2c]	2.A	2.e	2.cc
1c	.	.	.
.	4G	4e	4b-y
.	2F	4f	2a
.	.	4e	.
2G	2E	4d	[2g
.	.	4c	.
=51	=51	=51	=51
2A	1D	2d	4g]
.	.	.	4f
2B-y	.	2B-y	2.f
1G	1C	1c	.
.	.	.	4e
.	.	.	4e
.	.	.	4d
=52	=52	=52	=52
[0F	0r	1c	0f
.	.	2r	.
.	.	2c	.
=53	=53	=53	=53
0F]	0r	2.f	2r
.	.	.	2c
.	.	4g	.
.	.	2a	2.f
.	.	2b-y	.
.	.	.	4g
=54	=54	=54	=54
0r	0r	2cc	2a
.	.	2g	2b-y
.	.	2a	2cc
.	.	2d	2dd
=55	=55	=55	=55
0r	0r	1g	2ee
.	.	.	1dd
.	.	2f	.
.	.	2e	[2cc
=56	=56	=56	=56
0r	1r	1d	4cc]
.	.	.	4bni
.	.	.	4bni
.	.	.	4a
.	2r	[1c	[1cc
.	2C	.	.
=57	=57	=57	=57
2r	2F	1c]	1cc]
2C	2G	.	.
2.F	2A	1r	1r
.	2B-y	.	.
4G	.	.	.
=58	=58	=58	=58
2A	2c	0r	0r
2B-y	2G	.	.
2c	2A	.	.
2d	2D	.	.
=59	=59	=59	=59
2e	1G	1r	0r
1d	.	.	.
.	2F	[1f	.
[2c	2E	.	.
=60	=60	=60	=60
4c]	1D	1f]	0r
4Bni	.	.	.
4Bni	.	.	.
4A	.	.	.
1c	[1C	1e	.
=61	=61	=61	=61
1G	1C]	1c	0r
2C	2r	[1e	.
[2c	2C	.	.
=62	=62	=62	=62
2c]	2.C	1e]	0r
4B-y	.	.	.
4A	4D	.	.
1G	4E	1g	.
.	4F	.	.
.	4G	.	.
.	4A	.	.
=63	=63	=63	=63
0r	4B-y	1.f	1r
.	4c	.	.
.	2.d	.	.
.	.	.	[1ff
.	4c	.	.
.	[2c	2e	.
=64	=64	=64	=64
0r	4c]	1d	1ff]
.	4Bni	.	.
.	4Bni	.	.
.	4A	.	.
.	2c	2.c	1ee
.	[2c	.	.
.	.	4d	.
=65	=65	=65	=65
0r	2c]	2e	1cc
.	2F	2f	.
.	[1c	2g	[1ee
.	.	2a	.
=66	=66	=66	=66
0r	1c]	2g	1ee]
.	.	2.c	.
.	1r	.	1gg
.	.	4B-y	.
.	.	4G	.
.	.	4A	.
=67	=67	=67	=67
1r	0r	4B-y	1.ff
.	.	4c	.
.	.	1d	.
[1B-y	.	.	.
.	.	2e	2ee
=68	=68	=68	=68
1B-]	1d	2f	1dd
.	.	2g	.
1A	2e	1a	[1cc
.	[2f	.	.
=69	=69	=69	=69
1F	2f]	2r	1cc]
.	4e	1a	.
.	4d	.	.
[1A	2f	.	2r
.	2e	4g	[2cc
.	.	4f	.
=70	=70	=70	=70
1A]	1c	1e	2cc]
.	.	.	4b-y
.	.	.	4a
1c	1e	2r	2g
.	.	2c	2a
=71	=71	=71	=71
1.B-y	2.f	2d	2.b-y
.	.	2f	.
.	4e	.	4a
.	2d	2g	4g
.	.	.	4f
2A	[2c	2a	[2f
=72	=72	=72	=72
1G	4c]	1b-y	4f]
.	4B-y	.	8eL
.	.	.	8dJ
.	4B-y	.	2e
.	8AL	.	.
.	8B-yJ	.	.
1F	1c	1a	1f
=73	=73	=73	=73
0F	0c	0f	0a
=74	=74	=74	=74
1D	1d	1f	1b-y
[1C	[1e	[1g	[1cc
=75	=75	=75	=75
1C]	1e]	1g]	1cc]
2r	2r	2r	2r
2C	2e	2g	2cc
=76	=76	=76	=76
2.C	2.e	2.g	2.cc
4D	4d	4f	4b-y
2C	2e	2g	2cc
2F	2f	2a	2cc
=77	=77	=77	=77
2.C	2.e	2.g	2.cc
4D	4d	4f	4b-y
2C	2e	1g	2cc
2G	[2d	.	2b-y
=78	=78	=78	=78
2A	4d]	2e	1a
.	4c	.	.
2F	2.c	2f	.
1G	.	1d	[1g
.	8BniL	.	.
.	8AJ	.	.
.	2Bni	.	.
=79	=79	=79	=79
1C	1c	2e	0g_
.	.	2.c	.
2r	2.C	.	.
.	.	4d	.
[2C	.	4e	.
.	4D	4f	.
=80	=80	=80	=80
4C]	4E	2g	0g_
4D	4F	.	.
4E	4G	4f	.
4F	4A	4e	.
4G	4B-y	4d	.
4A	4c	4c	.
4B-y	[2d	4B-y	.
4c	.	4A	.
=81	=81	=81	=81
4B-y	4d]	2G	0g_
4G	4B-y	.	.
2.c	2c	2e-X	.
.	1G	1d	.
4Bni	.	.	.
4Bni	.	.	.
4A	.	.	.
=82	=82	=82	=82
2c	2C	1c	0g_
2.C	1c	.	.
.	.	1e	.
4D	.	.	.
4E	4B-y	.	.
4F	4A	.	.
=83	=83	=83	=83
0G	[0B-y	1d	0g_
.	.	2r	.
.	.	2g	.
=84	=84	=84	=84
1G	0B-]	2e	1g]
.	.	2d	.
2E-X	.	1g	1r
2D	.	.	.
=85	=85	=85	=85
1G	0r	2e	0r
.	.	2d	.
2E-i	.	4G	.
.	.	4A	.
2D	.	4B-y	.
.	.	4c	.
=86	=86	=86	=86
1F	0r	4d	0r
.	.	4c	.
.	.	2.c	.
1D	.	.	.
.	.	8BniL	.
.	.	8AJ	.
.	.	2Bni	.
=87	=87	=87	=87
[0C	1r	2.c	1cc
.	.	4d	.
.	1c	[1e	2a
.	.	.	2g
=88	=88	=88	=88
0C]	2A	0e]	1cc
.	2G	.	.
.	1c	.	2a
.	.	.	2g
=89	=89	=89	=89
1C	2A	1e	4c
.	.	.	4d
.	2G	.	4e
.	.	.	4f
2BB-y	1B-y	1d	4g
.	.	.	4f
2BB-y	.	.	[2f
=90	=90	=90	=90
1C	1G	1c	4f]
.	.	.	8eL
.	.	.	8dJ
.	.	.	2e
2r	2F	2c	2f
[2c	[2F	2f	[2a
=91	=91	=91	=91
2c]	2F]	2f	2a]
2c	2C	2e	2g
2c	2F	2c	2a
2B-y	2G	[2g	2b-y
=92	=92	=92	=92
1A	2A	4g]	1cc
.	.	4f	.
.	2.c	2.f	.
1G	.	.	1b-y
.	8B-yL	4e	.
.	8AJ	.	.
.	2B-y	4e	.
.	.	4d	.
=93	=93	=93	=93
1F	1c	1f	0a
1r	2r	1F	.
.	[2c	.	.
=94	=94	=94	=94
0r	2c]	2A	0r
.	2B-y	2B-y	.
.	2A	2c	.
.	2G	[2d	.
=95	=95	=95	=95
2r	2F	2d]	0r
2G	2E	2c	.
2A	2D	2d	.
2B-y	2D	2f	.
=96	=96	=96	=96
2c	2C	2e	0r
1d	1B-y	1g	.
2c	2F	2f	.
=97	=97	=97	=97
2c	2G	2e	0r
2B-y	2G	2d	.
1c	1C	[1e	.
=98	=98	=98	=98
2r	2.c	1e]	1g
1c	.	.	.
.	4B-y	.	.
.	2A	1r	2a
2B-y	2G	.	2b-y
=99	=99	=99	=99
2A	2F	2r	2cc
2G	2B-y	1d	1dd
2F	2A	.	.
2E	[2G	2e	2cc
=100	=100	=100	=100
2D	4G]	2f	2cc
.	8FL	.	.
.	8EJ	.	.
2D	2F	2d	2bni
2C	2G	2e	1cc
2F	2A	2f	.
=101	=101	=101	=101
2C	2G	2e	2r
2E	2C	2.g	2g
1D	1F	.	2a
.	.	4f	.
.	.	[2f	2b-y
=102	=102	=102	=102
1C	1G	4f]	1cc
.	.	8eL	.
.	.	8dJ	.
.	.	2e	.
1r	1F	1f	[1a
=103	=103	=103	=103
2A	2.c	2.f	1a]
4B-y	.	.	.
2c	4d	4g	.
.	2e	2a	1r
2.c	.	.	.
.	2e	2a	.
=104	=104	=104	=104
2d	2f	2b-y	0r
1B-y	1d	1g	.
2A	2c	2f	.
=105	=105	=105	=105
2G	2c	2f	0r
2G	2B-y	2e	.
1A	1c	1f	.
=106	=106	=106	=106
1F	1c	1f	1r
2.F	2.A	2.c	2.f
4F	4B-y	4c	4g
=107	=107	=107	=107
2F	2c	2f	2a
2F	2c	2f	2a
2BB-y	2d	2f	2b-y
[2E-X	[2B-y	[2e-X	[2g
=108	=108	=108	=108
2E-]	2B-]	2e-]	2g]
2F	2A	2c	2f
2C	2G	2c	2f
2C	2G	2c	2e
=109	=109	=109	=109
1F	1A	1c	1f
[1Fl	[1Fl	[1cl	[1fl
=110	=110	=110	=110
00F]	00F]	00c]	00f]
==	==	==	==
*-	*-	*-	*-
!!!system-decoration: [*]
!!!RDF**kern: i = editorial accidental
!!!RDF**kern: l = terminal long
!!!ENC: Benjamin Ory
!!!END: 2022/2/12
!!!EED: Benjamin Ory
!!!EEV: 2022/02/12
!!!YEC: Copyright 2022 Benjamin Ory, All Rights Reserved
!!!ONB: Translated from MusicXML on 2022/02/12
